X:897
T:Lochanside 
C:Joe Buchanan's Scottish Tome - Page 046.2
I:046 2
C:P.M. Angus macDonald
R:Waltz
Z:Carl Allison
L:1/8
M:3/4
K:Dmaj
"D" d>ef2 (fa) | "A7" ge "D" f2 d2 | a>fd2 (d>e) | "D" fA "A" f2 e2 |
"A" e>dc2 ca | fe d2 "D" A2 | "A7" e>f"G" g2 gB | "A7" cA "D" (d2 d) :|
"D" d>fa2 (a>g) | f>g a2 f2 | "D" dA"G" B2 (g>f) | "D" edf2 "A7" e2 |
"A" e>dc2 (ca) | "A7" fe "D" d2 A2 | "A7" e>f"G" {a}g2 gB | "A7" cA "D" {c}(d2 d) :|
"A" c>B A2 A/A/c | e{g}g "D" f2 d2 | "A" c>B A2 A/A/c | a>g "D" f2 "A" (eA) |
"D" d>f a2 (fa) | "G" g/f/e/d/ "A7" c2 B2 | "A" e>f "G" g2 gB | "A7" cA "D" {c}(d2 d) :|

